packages/kaspersky-hexa-ui-icons/src/iconsSVGs/24/HexColor.svg

<svg width="24" height="24" viewBox="0 0 24 24" fill="none" xmlns="http://www.w3.org/2000/svg">
<path fill-rule="evenodd" clip-rule="evenodd" d="M10.6464 1.8595C11.4852 1.38016 12.515 1.38017 13.3538 1.85951L20.175 5.75741C21.0252 6.24321 21.5498 7.14727 21.5498 8.12641V15.8735C21.5498 16.8527 21.0252 17.7568 20.175 18.2425L13.3538 22.1404C12.515 22.6198 11.4852 22.6198 10.6464 22.1405L3.82499 18.2425C2.97485 17.7568 2.4502 16.8527 2.4502 15.8735V8.12643C2.4502 7.14728 2.97485 6.24321 3.82499 5.75742L10.6464 1.8595ZM14.7285 9.27147H9.27148V14.7285H14.7285V9.27147Z" fill="#1E856F"/>
</svg>

<svg xmlns="http://www.w3.org/2000/svg" width="24" height="24" fill="none" viewBox="0 0 24 24"><path fill="#1e856f" fill-rule="evenodd" d="M10.6464 1.8595a2.728 2.728 0 0 1 2.7074 0l6.8212 3.898a2.728 2.728 0 0 1 1.3748 2.369v7.747a2.728 2.728 0 0 1-1.3748 2.369l-6.8212 3.8979a2.728 2.728 0 0 1-2.7074.0001l-6.8214-3.898a2.728 2.728 0 0 1-1.3748-2.369v-7.747c0-.9792.5246-1.8833 1.3748-2.369zm4.0821 7.412h-5.457v5.457h5.457z" clip-rule="evenodd"/></svg>
